X:3100
T:Kitty's Wedding
M:4/4
R:hornpipe
K:D
fe|:d2 Bd A2 FA|BAFE D2ED|B,DA,D DFBF|AFDF E2 fe|
|d2 Bd A2 FA|BAFA D2 ED|B,DA,D DFBF|AFEF D2:|
|: fg|afed bafd|Adfd edBA|DFAd FAde|fdgf e2 fg|
|afed bafd|Adfd edBA|DFAd FAdf|eABc d2:|
